!!!SOCIAL_FUNCTION:	songs with treatment of the sick
!!!PDT:	1932
!!!OTL: No_43_Song_When_Treating_the_Sick_(d).krn
!!!REG: Southwest
!!!LANG: Non-Tone
!!!LING_GROUP: Yuman-Cochimi
**kern
*staff1
=1-
*clefF4
*k[f#c#g#]
*M2/4
4E\
8C#/L
8C#/J
=2||
*M3/4
4E\
8C#/L
8C#/J
4E\
=3
2.E\
=4
8E\L
8E\J
4C#/
4r
=5||
*M2/4
4E\
4C#/
=6
8E\L
8E\J
4E\
=7
8E\L
8E\J
8.r
16E\
=8
4E\
4C#/
=9
4C#/
8.r
16E\
=10
2E\
=11
8E\L
8E\J
4C#/
=12
8E\L
8E\J
8.r
16E\
=13
4E\
4E\
=14
4E\
8.r
16E\
=15
4F#\
8B\L
8B\J
=16
4A\
4F#\
=17
4E\
4C#/
=18
8C#/L
8C#/J
8.r
16E\
=19
4E\
8E\L
8F#\J
=20
8C#/L
8C#/J
8.r
16E\
=21||
*M3/4
4E\
8C#/L
8C#/J
8.r
16E\
=22||
*M2/4
8E\L
8E\J
4E\
=23
2E\
=24||
*M3/4
8E\L
8E\J
4C#/
8.r
16E\
=25
8E\L
8E\J
8C#/L
8C#/J
8.r
16E\
=26||
*M2/4
2E\
=27||
*M3/4
8E\L
8E\J
4C#/
8.r
16E\
=28
8E\L
8E\J
8E\L
8E\J
8.r
16E\
=29||
*M2/4
8F#\L
8F#\J
8B\L
8A\J
=30
8A\L
8A\J
4F#\
=31
4E\
8C#/L
8C#/J
=32
8C#/L
8C#/J
8.r
16E\
=33
8E\L
8F#\J
4C#/
=34
8C#/L
8C#/J
8C#/
16r
16E\
=35
8E\L
8E\J
4E\
=36
8E\L
8E\J
8.r
16E\
=37
4E\
8E\L
8E\J
=38||
*M3/4
4E\
4E\
8F#\L
8E\J
=39||
*M2/4
4F#\
8F#\L
8B\J
=40
8A\L
8A\J
8F#\L
8F#\J
=41
4E\
4C#/
=42||
*M3/4
4E\
8C#/L
8C#/J
8r
8E\
=43||
*M2/4
4E\
4E\
=44||
*M3/4
8E\L
8E\J
4C#/
8.r
16E\
=45||
*M2/4
8E\L
8E\J
4E\
=46
4E\
8F#\L
8E\J
=47
4F#\
8D\L
8B\J
=48
4A\
8F#\L
8F#\J
=49
4E\
8C#/L
8E/J
=50
8E\L
8E\J
4E\
=51
8E\L
8E\J
8F#/L
8C#/J
=52||
*M3/4
4E\
4C#/
8r
8E\
=53||
*M2/4
8E\L
8E\J
4E\
=54
8E\L
8E\J
8r
8E\
=55||
!!pagebreak:default
*M3/4
4E\
8E\L
8E\J
8F#\L
8E\J
=56||
*M2/4
8F#\L
8F#\J
8F#\L
8B\J
=57
4A\
8F#\L
8F#\J
=58||
*M3/4
8E\L
8E\J
4C#/
8r
8E\
=59
4E\
4E\
8F#/L
8C#/J
=60
4E\
4C#/
8r
8E\
=61||
*M2/4
8C#/L
8C#/J
8r
8E\
=62
8E\L
8E\J
8E\L
8E\J
=63||
*M3/4
4E\
4E\
8F#\L
8E\J
=64||
*M2/4
4F#\
8F#\L
8B\J
=65
8A\L
8A\J
8F#\L
8F#\J
=66||
*M3/4
8E\L
8E\J
4C#/
8.r
16E\
=67||
*M2/4
8E\L
8E\J
4E\
=68
8E\L
8E\J
8.r
16E\
=69
8E/L
8C#/J
8E\L
8E\J
=70||
*M3/4
4E\
4E\
8F#/L
8C#/J
=71
4E\
8C#/L
8C#/J
8.r
16E\
=72||
*M2/4
8E/L
8C#/J
8E\L
8E\J
=73||
*M3/4
4E\
4E\
8F#\L
8E\J
=74||
*M2/4
4F#\
8F#\L
8B\J
=75
4A\
8F#\L
8F#\J
=76||
*M3/4
4E\
8C#/L
8C#/J
8.r
16E\
=77||
*M2/4
8E/L
8C#/J
8E\L
8E\J
=78||
*M3/4
4.E\
8E\
8F#/L
8C#/J
=79||
*M2/4
4E\
4C#/
=80
2C#/
==
*-
